icons/lines/sms-edit.svg

<svg xmlns="http://www.w3.org/2000/svg" width="24" height="24" viewBox="0 0 24 24" fill="none" stroke="currentColor" stroke-width="2" stroke-linecap="round" stroke-linejoin="round" >
  <path d="M12 20.5H7C4 20.5 2 19 2 15.5V8.5C2 5 4 3.5 7 3.5H17C20 3.5 22 5 22 8.5V11.5" stroke-miterlimit="10"/>
  <path d="M17 9L13.87 11.5C12.84 12.32 11.15 12.32 10.12 11.5L7 9" stroke-miterlimit="10"/>
  <path d="M19.21 14.77L15.6701 18.31C15.5301 18.45 15.4 18.71 15.37 18.9L15.18 20.25C15.11 20.74 15.45 21.08 15.94 21.01L17.29 20.82C17.48 20.79 17.75 20.66 17.88 20.52L21.4201 16.98C22.0301 16.37 22.3201 15.66 21.4201 14.76C20.5301 13.87 19.82 14.16 19.21 14.77Z" stroke-miterlimit="10"/>
  <path d="M18.7002 15.28C19.0002 16.36 19.8402 17.2 20.9202 17.5" stroke-miterlimit="10"/>
  </svg>

<svg xmlns="http://www.w3.org/2000/svg" width="24" height="24" viewBox="0 0 24 24" fill="none" stroke="currentColor" stroke-width="2" stroke-linecap="round" stroke-linejoin="round">
  <path d="M12 20.5H7c-3 0-5-1.5-5-5v-7c0-3.5 2-5 5-5h10c3 0 5 1.5 5 5v3" />
  <path d="M15.67 18.31a1.23 1.23 0 0 0-.3.59l-.19 1.35c-.07.49.27.83.76.76l1.35-.19a1.2 1.2 0 0 0 .59-.3l3.54-3.54c.61-.61.9-1.32 0-2.22-.89-.89-1.6-.6-2.21.01z" />
  <path d="m17 9-3.13 2.5c-1.03.82-2.72.82-3.75 0L7 9" />
  <path d="M18.7 15.28a3.19 3.19 0 0 0 2.22 2.22" />
</svg>
